public/images/sponsors/HERE.svg

<svg fill="none" height="86" viewBox="0 0 172 86" width="172" xmlns="http://www.w3.org/2000/svg"><g clip-rule="evenodd" fill-rule="evenodd"><path d="m104.313 23.6933c-1.28-1.4921-1.318-3.2163 0-4.5957 1.279-1.3031 2.936-1.3396 4.522 0zm-20.8341 21.1912c-1.282-1.4938-1.3202-3.2544 0-4.599 1.2804-1.3014 2.9389-1.3396 4.5577 0zm16.6521-.3813 4.672-4.7515-5.0455-5.1362c-4.1066-4.1779-2.9025-6.3978-1.9571-7.3561.6004-.6134 1.2041-1.0726 1.6204-1.3031.579 1.1505 1.3422 2.1988 2.2592 3.1036 4.892 5.0201 10.246 4.3271 14.353.1177 2.449-2.4935 3.619-4.7913 3.917-5.9419l-4.03-2.2597c-.488 1.071-1.621 2.9129-2.898 4.2144-2.224 2.2978-4.337 2.2978-5.765 1.1108l8.406-8.5067-1.055-1.0727c-4.942-5.0565-9.53-5.3268-13.678-1.1107-2.7482 2.7952-3.1263 6.2452-1.9222 9.387l-3.0899-3.7154c-.3002.1161-.8657.5736-1.4313 1.1489-1.6204 1.6861-1.9969 4.2907-1.5806 6.0149l-2.0764-1.7988-4.1033 4.1762 5.6473 5.7479c-4.4813-3.7551-8.5132-3.5645-12.24.2288-3.7682 3.8297-3.5426 8.5083-.4146 12.4127l-.5291-.5339c-3.3519-3.4119-6.591-4.1431-9.7953-.8455-1.8841 1.8784-2.1843 3.717-1.9969 5.3666l-7.9112-8.0109-4.6008 4.6752 15.2934 15.5975h9.3459l-6.4418-6.5537c-2.2606-2.2613-2.9389-3.8314-1.5457-5.2489 1.0166-1.0726 2.1859-1.0361 3.6156.4195l7.7619 7.933 4.6721-4.7499-5.8016-5.9004c4.5942 3.8712 9.6063 2.9146 13.4126-.9947 1.9986-1.9912 3.0882-3.8331 3.619-5.0964l-4.1099-2.3343c-.602 1.071-1.5059 2.4122-2.4845 3.4484-2.2622 2.2962-4.3702 2.2962-5.7999 1.1075l8.3259-8.4669 5.3833 5.4777z" fill="#3f454d"/><path d="m52 65.3745 9.3774 9.5395 9.379-9.5395z" fill="#00afaa"/></g></svg>

<svg width="172" height="86" viewBox="0 0 172 86" fill="none" xmlns="http://www.w3.org/2000/svg">
<path fill-rule="evenodd" clip-rule="evenodd" d="M104.313 23.6933C103.033 22.2012 102.995 20.477 104.313 19.0976C105.592 17.7945 107.249 17.758 108.835 19.0976L104.313 23.6933ZM83.4789 44.8845C82.1969 43.3907 82.1587 41.6301 83.4789 40.2855C84.7593 38.9841 86.4178 38.9459 88.0366 40.2855L83.4789 44.8845ZM100.131 44.5032L104.803 39.7517L99.7575 34.6155C95.6509 30.4376 96.855 28.2177 97.8004 27.2594C98.4008 26.646 99.0045 26.1868 99.4208 25.9563C99.9998 27.1068 100.763 28.1551 101.68 29.0599C106.572 34.08 111.926 33.387 116.033 29.1776C118.482 26.6841 119.652 24.3863 119.95 23.2357L115.92 20.976C115.432 22.047 114.299 23.8889 113.022 25.1904C110.798 27.4882 108.685 27.4882 107.257 26.3012L115.663 17.7945L114.608 16.7218C109.666 11.6653 105.078 11.395 100.93 15.6111C98.1818 18.4063 97.8037 21.8563 99.0078 24.9981L95.9179 21.2827C95.6177 21.3988 95.0522 21.8563 94.4866 22.4316C92.8662 24.1177 92.4897 26.7223 92.906 28.4465L90.8296 26.6477L86.7263 30.8239L92.3736 36.5718C87.8923 32.8167 83.8604 33.0073 80.1336 36.8006C76.3654 40.6303 76.591 45.3089 79.719 49.2133L79.1899 48.6794C75.838 45.2675 72.5989 44.5363 69.3946 47.8339C67.5105 49.7123 67.2103 51.5509 67.3977 53.2005L59.4865 45.1896L54.8857 49.8648L70.1791 65.4623H79.525L73.0832 58.9086C70.8226 56.6473 70.1443 55.0772 71.5375 53.6597C72.5541 52.5871 73.7234 52.6236 75.1531 54.0792L82.915 62.0122L87.5871 57.2623L81.7855 51.3619C86.3797 55.2331 91.3918 54.2765 95.1981 50.3672C97.1967 48.376 98.2863 46.5341 98.8171 45.2708L94.7072 42.9365C94.1052 44.0075 93.2013 45.3487 92.2227 46.3849C89.9605 48.6811 87.8525 48.6811 86.4228 47.4924L94.7487 39.0255L100.132 44.5032H100.131Z" fill="#3F454D"/>
<path fill-rule="evenodd" clip-rule="evenodd" d="M52 65.3745L61.3774 74.914L70.7564 65.3745H52Z" fill="#00AFAA"/>
</svg>
